Icons/Colored/RoadUpgradeTunnel.svg

<svg xmlns="http://www.w3.org/2000/svg" xml:space="preserve" fill-rule="evenodd" stroke-linejoin="round" stroke-miterlimit="2" clip-rule="evenodd" viewBox="0 0 64 64">
  <g id="grey">
    <path fill="#434343" fill-rule="nonzero" d="m4.639 32.47 29.614 25.368 25.14-15.536-.163-1.276-1.852 1.073L4.643 30.427l-.004 2.043Z"/>
    <path fill="#d4d4d4" fill-rule="nonzero" d="m5.171 30.275 34.086 22.391 13.867-8.215-25.415-28.039L5.171 30.275Z"/>
    <path fill="#929090" fill-rule="nonzero" d="m4.608 30.416 29.87 25.097 11.646-6.914-30.016-25.113-11.5 6.93Z"/>
    <path fill="#929090" fill-rule="nonzero" d="m17.905 22.56 29.852 25.071 9.621-5.532-29.669-25.687-3.222 1.98-6.582 4.168Z"/>
    <path fill="#7f7f7f" fill-rule="nonzero" d="m46.428 49.099 11.312-6.691-11.312 6.691Z"/>
    <path fill="#706e6e" fill-rule="nonzero" d="m4.608 30.416 29.87 25.097L7.503 28.67l-2.895 1.746Z"/>
    <path fill="#d4d4d4" d="m31.719 41.021-1.831 1.117 4.59 13.375 1.871-1.11-4.63-13.382Z"/>
    <path fill="#d4d4d4" d="m55.226 26.685-2.009 1.226 4.161 14.188 1.852-1.073-4.004-14.341Z"/>
    <path fill="#b0abab" fill-rule="nonzero" d="m27.512 7.076 4.223 33.95 23.491-14.341L29.147 6.162l-1.635.914Z"/>
    <path fill="#b5b5b5" fill-rule="nonzero" d="m57.378 42.099-30.813-24.9-.328-9.296 26.98 20.008 4.161 14.188Z"/>
    <path fill="#d4d4d4" fill-rule="nonzero" d="M34.478 55.513 4.639 30.397V19.362l25.303 20.333-.054 2.443 4.59 13.375Z"/>
    <path fill="#b0abab" fill-rule="nonzero" d="m4.639 19.362 25.249 20.333 25.845-15.138L29.147 6.162l-24.508 13.2Z"/>
    <path fill="#d4d4d4" d="M29.888 42.138v-2.443l25.845-15.138-.507 2.128-25.338 15.453Z"/>
  </g>
</svg>

<?xml version="1.0" encoding="UTF-8" standalone="no"?>
<!DOCTYPE svg PUBLIC "-//W3C//DTD SVG 1.1//EN" "http://www.w3.org/Graphics/SVG/1.1/DTD/svg11.dtd">
<svg width="100%" height="100%" viewBox="0 0 64 64" version="1.1" xmlns="http://www.w3.org/2000/svg" xmlns:xlink="http://www.w3.org/1999/xlink" xml:space="preserve" xmlns:serif="http://www.serif.com/" style="fill-rule:evenodd;clip-rule:evenodd;stroke-linejoin:round;stroke-miterlimit:2;">
    <g id="surface1">
        <path d="M4.639,32.47L34.253,57.838L59.393,42.302L59.23,41.026L57.378,42.099L4.643,30.427L4.639,32.47Z" style="fill:#434343;fill-rule:nonzero;"/>
        <path d="M5.171,30.275L39.257,52.666L53.124,44.451L27.709,16.412L5.171,30.275Z" style="fill:#d4d4d4;fill-rule:nonzero;"/>
        <path d="M4.608,30.416L34.478,55.513L46.124,48.599L16.108,23.486L4.608,30.416Z" style="fill:#929090;fill-rule:nonzero;"/>
        <path d="M17.905,22.56L47.757,47.631L57.378,42.099L27.709,16.412L24.487,18.392L17.905,22.56Z" style="fill:#929090;fill-rule:nonzero;"/>
        <path d="M46.428,49.099L57.74,42.408L46.428,49.099Z" style="fill:#7f7f7f;fill-rule:nonzero;"/>
        <path d="M4.608,30.416L34.478,55.513L7.503,28.67L4.608,30.416Z" style="fill:#706e6e;fill-rule:nonzero;"/>
        <path d="M31.719,41.021L29.888,42.138L34.478,55.513L36.349,54.403L31.719,41.021Z" style="fill:#d4d4d4;"/>
        <path d="M55.226,26.685L53.217,27.911L57.378,42.099L59.23,41.026L55.226,26.685Z" style="fill:#d4d4d4;"/>
        <path d="M27.512,7.076L31.735,41.026L55.226,26.685L29.147,6.162L27.512,7.076Z" style="fill:#b0abab;fill-rule:nonzero;"/>
        <path d="M57.378,42.099L26.565,17.199L26.237,7.903L53.217,27.911L57.378,42.099Z" style="fill:#b5b5b5;fill-rule:nonzero;"/>
        <path d="M34.478,55.513L4.639,30.397L4.639,19.362L29.942,39.695L29.888,42.138L34.478,55.513Z" style="fill:#d4d4d4;fill-rule:nonzero;"/>
        <path d="M4.639,19.362L29.888,39.695L55.733,24.557L29.147,6.162L4.639,19.362Z" style="fill:#b0abab;fill-rule:nonzero;"/>
        <path d="M29.888,42.138L29.888,39.695L55.733,24.557L55.226,26.685L29.888,42.138Z" style="fill:#d4d4d4;"/>
    </g>
</svg>
